public/linkedin.svg

<svg width="24" height="24" viewBox="0 0 24 24" fill="none" xmlns="http://www.w3.org/2000/svg">
<path fill-rule="evenodd" clip-rule="evenodd" d="M-0.000487984 2.00583C-0.000487984 1.47404 0.210762 0.96404 0.586789 0.588013C0.962817 0.211985 1.47282 0.000735095 2.0046 0.000735095H21.9922C22.2558 0.000304675 22.5168 0.0518583 22.7604 0.152444C23.004 0.25303 23.2253 0.400673 23.4118 0.58692C23.5982 0.773167 23.7461 0.994361 23.847 1.23784C23.9478 1.48131 23.9997 1.74229 23.9995 2.00583V21.9935C23.9998 22.257 23.9481 22.5181 23.8474 22.7617C23.7467 23.0053 23.599 23.2266 23.4126 23.4131C23.2263 23.5995 23.005 23.7474 22.7615 23.8482C22.5179 23.949 22.2569 24.0009 21.9933 24.0007H2.0046C1.7412 24.0007 1.48038 23.9488 1.23704 23.848C0.993696 23.7472 0.772608 23.5994 0.586404 23.4131C0.400199 23.2268 0.252528 23.0056 0.151827 22.7622C0.0511262 22.5188 -0.000631295 22.258 -0.000487984 21.9946V2.00583ZM9.49915 9.15128H12.749V10.7833C13.2181 9.8451 14.4181 9.00073 16.2213 9.00073C19.6784 9.00073 20.4977 10.8695 20.4977 14.2982V20.6495H16.9991V15.0793C16.9991 13.1266 16.5301 12.0247 15.3388 12.0247C13.6861 12.0247 12.9988 13.2127 12.9988 15.0793V20.6495H9.49915V9.15128ZM3.49915 20.5H6.99878V9.00073H3.49915V20.4989V20.5ZM7.49951 5.25019C7.50611 5.54983 7.45279 5.84777 7.34268 6.12653C7.23257 6.40529 7.06789 6.65925 6.85831 6.8735C6.64872 7.08775 6.39846 7.25798 6.12219 7.3742C5.84592 7.49041 5.54923 7.55028 5.24951 7.55028C4.9498 7.55028 4.6531 7.49041 4.37683 7.3742C4.10057 7.25798 3.8503 7.08775 3.64071 6.8735C3.43113 6.65925 3.26645 6.40529 3.15634 6.12653C3.04623 5.84777 2.99291 5.54983 2.99951 5.25019C3.01246 4.66203 3.2552 4.10233 3.67575 3.69094C4.0963 3.27955 4.66121 3.04919 5.24951 3.04919C5.83781 3.04919 6.40273 3.27955 6.82327 3.69094C7.24382 4.10233 7.48656 4.66203 7.49951 5.25019V5.25019Z" fill="#DBEAFE"/>
</svg>

<svg width="24" height="24" fill="none" xmlns="http://www.w3.org/2000/svg"><path fill-rule="evenodd" clip-rule="evenodd" d="M-.0005 2.0058A2.005 2.005 0 0 1 2.0046.0008h19.9876a2.004 2.004 0 0 1 2.0073 2.005v19.9877a2.0051 2.0051 0 0 1-2.0062 2.0072H2.0046a2.0057 2.0057 0 0 1-1.4182-.5876 2.0051 2.0051 0 0 1-.5869-1.4185V2.0058Zm9.4996 7.1455h3.2499v1.632c.4691-.9382 1.6691-1.7826 3.4723-1.7826 3.4571 0 4.2764 1.8688 4.2764 5.2975v6.3513h-3.4986v-5.5702c0-1.9527-.469-3.0546-1.6603-3.0546-1.6527 0-2.34 1.188-2.34 3.0546v5.5702H9.4992V9.1513Zm-6 11.3487h3.4997V9.0007H3.4992V20.5ZM7.4996 5.2502a2.2505 2.2505 0 1 1-4.4999.0991 2.2505 2.2505 0 0 1 4.5-.0991Z" fill="#DBEAFE"/></svg>
